!!!OTL: 285. Sei vergnuegt und sorge nicht!
!!!ARE: Europa, Mitteleuropa, Deutschland, Thueringen; Hessen; Brandenburg
!!!SCT: B0285
!!!TXL: @@DE
!!!YEM: Copyright 1995, estate of Helmut Schaffrath.
**kern	**text
*ICvox	*
*Ivox	*
*clefG2	*
*M6/8	*
*k[f#c#]	*
*D:	*
!LO:TX:a:t=Munter.	!
{8a	Ein
=1	=1
4a	Herʒ,
8dd	das
4f#	ſich
8f#	mit
=2	=2
8f#L	Sor-
8eJ	.
8f#	-gen
4d}	quält,
{8a	hat
=3	=3
4a	we-
8g	-nig
4g	fro-
8f#	-he
=4	=4
8f#	Stun-
8e	-den;
8r	.
4r}	.
{8a	es
=5	=5
4a	hat
8dd	ſein
4f#	Theil
8f#	ſchon
=6	=6
8f#L	hier
8eJ	.
8f#	er-
4d}	-wählt,
{8a	die
=7	=7
4a	Hoffnung
8g	.
4g	iſt
8f#	ver-
=8	=8
8f#	-ſchwunden.
8e	.
8r	.
4r}	.
{8a	Nur
=9	=9
4g#	glück-
8e	-lich
8aL	iſt,
8cc#J	.
8ee	wer
=10	=10
8ddL	das
8bJ	.
8g#	ver-
4a}	-gißt,
{8a	was
=11	=11
4g#	ein-
8e	-mal
8aL	nicht
8cc#J	.
8ee	ʒu
=12	=12
(8ddL	än-
8bJ)	.
8g#	-dern
(4a;	iſt;
8g)}	.
=13	=13
{8f#	nur
8f#	glück-
8f#	-lich
(8aL	iſt
8gJ)	.
8r	.
=14	=14
8e	wer
8e	das
8e	ver-
(8bL	-gißt,
8aJ)	.
8r}	.
=15	=15
{8dd	was
8dd	ein-
8dd	-mal
4ee	nicht
8ee	ʒu
=16	=16
8aL	än-
8bJ	.
8cc#	-dern
4dd}	iſt.
==	==
!!!AGN: Stimmungs - Lied, Freude
!!!GTL: Lieder der Freude und Geseligkeit
!!!ONB: ESAC (Essen Associative Code) Database: BOEHME
!!!AMT: compound duple
!!!AIN: vox
!!!EED: Helmut Schaffrath
!!!EEV: 1.0
!!Allgemein bekannte Mel. aus Thüringen, Heſſen, Brandenburg, vom Niederrhein.
!!@@COMMENT:"Text und erſte Melodie nach Erk, Volkslieder J, 4 Nr. 30. Fink, Hausſchatʒ. Härtel, Liederlexikon.
!!(Etwas abweichend Wolfram, Naſſauer Vl. Nr. 401;. - Das Lied ſtammt aus der Mitte
!!des 18. Jahrbunderts und wird noch jetʒt ʒuweilen geſungen. Verfaſſer unbekannt. "
!!@@END:
!!!URL-scan: https://archive.org/details/BoehmeVtLieder1895/page/n241/mode/2up
!!!ENC: Anna Maria Matuszewska
!!!EEV: 2024/03/07
*-	*-
